picto/loading-ramp-for-lorries-left-framed.svg

<svg class="color-immutable" width="30" height="30" viewBox="0 0 30 30" fill="none" xmlns="http://www.w3.org/2000/svg"><path d="M30.0021 0H0.0020752V30H30.0021V0Z" fill="#2D327D"/><path d="M25.5021 3C26.3271 3 27.0021 3.675 27.0021 4.5V25.5C27.0021 26.325 26.3271 27 25.5021 27H4.50208C3.67708 27 3.00208 26.325 3.00208 25.5V4.5C3.00208 3.675 3.67708 3 4.50208 3H25.5021ZM25.5021 2.625H4.50208C3.4682 2.625 2.62708 3.46613 2.62708 4.5V25.5C2.62708 26.5339 3.4682 27.375 4.50208 27.375H25.5021C26.536 27.375 27.3771 26.5339 27.3771 25.5V4.5C27.3771 3.46613 26.536 2.625 25.5021 2.625Z" fill="white"/><path d="M9.6001 16.5C9.6001 17.0715 9.80635 17.595 10.1491 18C10.5751 18.5048 11.2126 18.825 11.9251 18.825C12.6376 18.825 13.2751 18.5048 13.7011 18C14.0438 17.595 14.2501 17.0715 14.2501 16.5C14.2501 15.216 13.2091 14.175 11.9251 14.175C10.6411 14.175 9.6001 15.216 9.6001 16.5ZM10.7251 16.5C10.7251 15.837 11.2621 15.3 11.9251 15.3C12.5881 15.3 13.1251 15.837 13.1251 16.5C13.1251 17.163 12.5881 17.7 11.9251 17.7C11.2621 17.7 10.7251 17.163 10.7251 16.5Z" fill="white"/><path d="M23.9987 15.6H15.3737V17.1H23.9987V15.6Z" fill="white"/><path d="M5.99939 11.175L6.00014 16.725C6.00014 16.9321 6.16806 17.1 6.37514 17.1H8.32514C8.53221 17.1 8.70014 16.9321 8.70014 16.725V16.5V16.4887C8.70614 14.7127 10.1476 13.275 11.9251 13.275C12.8401 13.275 13.6659 13.656 14.2524 14.2672L14.2494 7.35H8.02589C7.41464 7.35 6.87989 7.76025 6.72164 8.34975L6.04589 10.8255C6.01514 10.9395 5.99939 11.0572 5.99939 11.175ZM11.9994 8.025C12.2064 8.025 12.3744 8.193 12.3744 8.4V10.575C12.3744 10.782 12.2064 10.95 11.9994 10.95H7.19939C6.99239 10.95 6.82439 10.782 6.82439 10.575C6.82439 10.542 6.82889 10.5097 6.83714 10.4775L7.37339 8.46975C7.44389 8.20725 7.67849 8.025 7.94999 8.025H11.9994Z" fill="white"/><path d="M24.0002 19.1998H6V20.3251H24.0002V19.1998Z" fill="white"/><path d="M5.99988 23.3251H24V24H5.99988V23.3251Z" fill="white"/><path d="M7.49805 21.7868C7.49805 21.187 7.98487 20.7005 8.58592 20.7005C9.18607 20.7005 9.6729 21.187 9.6729 21.7868C9.6729 22.3875 9.18607 22.875 8.58592 22.875C7.98487 22.875 7.49805 22.3875 7.49805 21.7868Z" fill="white"/><path d="M10.422 21.7868C10.422 21.187 10.9098 20.7005 11.5098 20.7005C12.11 20.7005 12.5978 21.187 12.5978 21.7868C12.5978 22.3875 12.11 22.875 11.5098 22.875C10.9098 22.875 10.422 22.3875 10.422 21.7868Z" fill="white"/><path d="M17.3981 21.7868C17.3981 21.187 17.8849 20.7005 18.4859 20.7005C19.0861 20.7005 19.5729 21.187 19.5729 21.7868C19.5729 22.3875 19.0861 22.875 18.4859 22.875C17.8849 22.875 17.3981 22.3875 17.3981 21.7868Z" fill="white"/><path d="M20.322 21.7868C20.322 21.187 20.8098 20.7005 21.4098 20.7005C22.01 20.7005 22.4978 21.187 22.4978 21.7868C22.4978 22.3875 22.01 22.875 21.4098 22.875C20.8098 22.875 20.322 22.3875 20.322 21.7868Z" fill="white"/><path d="M24 10.275H18.3C18.0929 10.275 17.925 10.1071 17.925 9.9C17.925 9.69293 18.0929 9.525 18.3 9.525H24V8.775H18.3C18.0929 8.775 17.925 8.60708 17.925 8.4C17.925 8.19292 18.0929 8.025 18.3 8.025H24L24.0001 6H15.7501C15.543 6 15.3751 6.16793 15.3751 6.375C15.3751 9 15.3751 14.85 15.3751 14.85L24.0001 14.8458L24 10.275Z" fill="white"/></svg>

<svg class="color-immutable" width="30" height="30" viewBox="0 0 30 30" fill="none" xmlns="http://www.w3.org/2000/svg"><g clip-path="url(#a)"><path d="M30.002 0h-30v30h30V0Z" fill="#2D327D"/><path d="M25.502 3c.825 0 1.5.675 1.5 1.5v21c0 .825-.675 1.5-1.5 1.5h-21c-.825 0-1.5-.675-1.5-1.5v-21c0-.825.675-1.5 1.5-1.5h21Zm0-.375h-21A1.877 1.877 0 0 0 2.627 4.5v21c0 1.034.841 1.875 1.875 1.875h21a1.877 1.877 0 0 0 1.875-1.875v-21a1.877 1.877 0 0 0-1.875-1.875Z" fill="#fff"/><path d="M9.6 16.5c0 .572.206 1.095.55 1.5a2.317 2.317 0 0 0 1.775.825c.713 0 1.35-.32 1.776-.825A2.325 2.325 0 1 0 9.6 16.5Zm1.125 0a1.2 1.2 0 1 1 2.4 0 1.2 1.2 0 0 1-2.4 0ZM23.999 15.6h-8.625v1.5h8.625v-1.5Z" fill="#fff"/><path d="M6 11.175v5.55c0 .207.168.375.375.375h1.95a.375.375 0 0 0 .375-.375V16.489a3.225 3.225 0 0 1 5.552-2.222L14.25 7.35H8.026a1.35 1.35 0 0 0-1.304 1l-.676 2.476c-.03.114-.047.231-.047.349Zm6-3.15c.206 0 .374.168.374.375v2.175a.375.375 0 0 1-.375.375H7.2a.375.375 0 0 1-.362-.473l.536-2.007a.597.597 0 0 1 .577-.445H12ZM24 19.2H6v1.125h18V19.2ZM6 23.325h18V24H6v-.675ZM7.498 21.787a1.087 1.087 0 1 1 2.174.001 1.087 1.087 0 0 1-2.174-.001ZM10.422 21.787a1.088 1.088 0 1 1 2.175.002 1.088 1.088 0 0 1-2.175-.002ZM17.398 21.787a1.087 1.087 0 1 1 2.174.001 1.087 1.087 0 0 1-2.174-.001ZM20.322 21.787a1.088 1.088 0 1 1 2.175.002 1.088 1.088 0 0 1-2.175-.002ZM24 10.275h-5.7a.375.375 0 0 1 0-.75H24v-.75h-5.7a.375.375 0 0 1 0-.75H24V6h-8.25a.375.375 0 0 0-.375.375v8.475L24 14.846v-4.571Z" fill="#fff"/></g><defs><clipPath id="a"><path fill="#fff" d="M0 0h30v30H0z"/></clipPath></defs></svg>
